X: 20572
T: CLARE DE KITCHEN
C:
%R: polka, march, reel
B: Elias Howe "The Musician's Companion" 1843 p.57 #2
S: http://imslp.org/wiki/The_Musician's_Companion_(Howe,_Elias)
Z: 2015 John Chambers <jc:trillian.mit.edu>
M: 2/4
L: 1/16
K: G
% - - - - - - - - - - - - - - - - - - - - - - - - -
DG |\
B2B2 B2GB | d2d2 d2Bd | g2g2 agfg | b2a2 a3d |\
b3g a3f | (g2d2) (B2d2) | b3g a3f | (g2d2) (B2d2) |
c3B A2c2 | A2c2 A2c2 | d3c B2d2 | B2d2 B2d2 |\
e3g f>ga>f | g>ab>a g>fe>d | e>fg>e f>ga>f | g2b2g2 :|
% - - - - - - - - - - - - - - - - - - - - - - - - -

%%sep 1 1 500

